src/images/saguaro.svg

<svg viewBox="0 0 90 110" xmlns="http://www.w3.org/2000/svg" fill-rule="evenodd" clip-rule="evenodd" stroke-linejoin="round" stroke-miterlimit="2"><path d="M64.006 59.398c.069-15.301.223-30.6.314-45.898-.088-2.349.11-4.699.59-7 .74-3 2.67-6.2 5-6.48 2.92-.35 3.58 3.06 3.6 6.53.07 12.056.142 24.113.216 36.167 1.375-.563 4.349-1.364 4.834-1.757 1.93-1.59 1.6-1.63 2.09-4.12.59-3 0-6.16.61-9.15.46-2.45 1.56-11.2 5.64-10.53 4.08.67 2.78 13.92 2.36 16.93-.63 4.37-.2 10.15-3.25 13.74-2.726 3.198-7.953 3.924-12.222 5.045.104 16.802.211 33.607.322 50.415 5.024 2.126 10.61 6.3 10.61 6.3H46.38s9.447-4.537 17.218-6.56c-.453-8.664.372-26.877.372-28.98 0-1.94.002-3.88.006-5.82-4.702-1.514-10.046-2.727-12.516-7.14-2.38-4.2-1.65-10.02-2.29-14.49-.67-4.58-2.56-10.47-.56-15a3.643 3.643 0 011.64-1.94c5.67-2.71 6.08 9.06 6.34 12 .32 3.57.3 7.21.83 10.76.641 4.25 2.992 5.858 6.586 6.978zM7.733 78.767c.038-5.897.074-11.901.107-18.307.01-1.76.34-3.46 1.77-3.31 1.16.14 2.1 1.77 2.46 3.28.221 1.167.318 2.353.29 3.54.053 8.979.144 17.95.165 26.927 1.302-.567 2.143-1.432 2.405-3.237.41-2.82.43-5.75.57-8.59 0-.82-.23-1.55.49-2.14 1-.77 1.93-.16 2.21.9 1 3.83 1.61 10.66-.36 14.27-1.075 1.975-3.225 2.664-5.29 3.333.104 3.185.568 13.754-.23 14.157H7.53c.058-9.083.115-17.358.17-25.67-2.091-.579-4.685-.994-5.93-2.54-1.49-1.85-1.28-4.78-1.58-7a38.211 38.211 0 01.3-9.9c.13-1.09 0-7.38 2.31-5.8a3 3 0 011 1.78c.82 3.27.33 6.7.1 10-.16 2.37-.49 5.75 1.51 7.43.241.203 1.645.594 2.323.877z" fill="#371a4a" fill-rule="nonzero"/></svg>

<?xml version="1.0" encoding="UTF-8" standalone="no"?>
<!DOCTYPE svg PUBLIC "-//W3C//DTD SVG 1.1//EN" "http://www.w3.org/Graphics/SVG/1.1/DTD/svg11.dtd">
<svg width="100%" height="100%" viewBox="0 0 90 110" version="1.1" xmlns="http://www.w3.org/2000/svg" xmlns:xlink="http://www.w3.org/1999/xlink" xml:space="preserve" xmlns:serif="http://www.serif.com/" style="fill-rule:evenodd;clip-rule:evenodd;stroke-linejoin:round;stroke-miterlimit:2;">
    <path d="M64.006,59.398C64.075,44.097 64.229,28.798 64.32,13.5C64.232,11.151 64.43,8.801 64.91,6.5C65.65,3.5 67.58,0.3 69.91,0.02C72.83,-0.33 73.49,3.08 73.51,6.55C73.58,18.606 73.652,30.663 73.726,42.717C75.101,42.154 78.075,41.353 78.56,40.96C80.49,39.37 80.16,39.33 80.65,36.84C81.24,33.84 80.65,30.68 81.26,27.69C81.72,25.24 82.82,16.49 86.9,17.16C90.98,17.83 89.68,31.08 89.26,34.09C88.63,38.46 89.06,44.24 86.01,47.83C83.284,51.028 78.057,51.754 73.788,52.875C73.892,69.677 73.999,86.482 74.11,103.29C79.134,105.416 84.72,109.59 84.72,109.59L46.38,109.59C46.38,109.59 55.827,105.053 63.598,103.03C63.145,94.366 63.97,76.153 63.97,74.05C63.97,72.11 63.972,70.17 63.976,68.23C59.274,66.716 53.93,65.503 51.46,61.09C49.08,56.89 49.81,51.07 49.17,46.6C48.5,42.02 46.61,36.13 48.61,31.6C48.906,30.778 49.488,30.089 50.25,29.66C55.92,26.95 56.33,38.72 56.59,41.66C56.91,45.23 56.89,48.87 57.42,52.42C58.061,56.67 60.412,58.278 64.006,59.398ZM7.733,78.767C7.771,72.87 7.807,66.866 7.84,60.46C7.85,58.7 8.18,57 9.61,57.15C10.77,57.29 11.71,58.92 12.07,60.43C12.291,61.597 12.388,62.783 12.36,63.97C12.413,72.949 12.504,81.92 12.525,90.897C13.827,90.33 14.668,89.465 14.93,87.66C15.34,84.84 15.36,81.91 15.5,79.07C15.5,78.25 15.27,77.52 15.99,76.93C16.99,76.16 17.92,76.77 18.2,77.83C19.2,81.66 19.81,88.49 17.84,92.1C16.765,94.075 14.615,94.764 12.55,95.433C12.654,98.618 13.118,109.187 12.32,109.59L7.53,109.59C7.588,100.507 7.645,92.232 7.7,83.92C5.609,83.341 3.015,82.926 1.77,81.38C0.28,79.53 0.49,76.6 0.19,74.38C-0.14,71.081 -0.039,67.753 0.49,64.48C0.62,63.39 0.49,57.1 2.8,58.68C3.331,59.138 3.685,59.768 3.8,60.46C4.62,63.73 4.13,67.16 3.9,70.46C3.74,72.83 3.41,76.21 5.41,77.89C5.651,78.093 7.055,78.484 7.733,78.767Z" style="fill:rgb(55,26,74);fill-rule:nonzero;"/>
</svg>
